sprites/actors/ghost_dead/ghost_dead_right.svg

<?xml version="1.0" encoding="UTF-8" standalone="no"?>
<!-- Created with Inkscape (http://www.inkscape.org/) -->

<svg
   width="100"
   height="100"
   viewBox="0 0 100 100"
   version="1.1"
   id="svg5"
   inkscape:version="1.2 (dc2aeda, 2022-05-15)"
   sodipodi:docname="ghost_dead_right.svg"
   xmlns:inkscape="http://www.inkscape.org/namespaces/inkscape"
   xmlns:sodipodi="http://sodipodi.sourceforge.net/DTD/sodipodi-0.dtd"
   xmlns="http://www.w3.org/2000/svg"
   xmlns:svg="http://www.w3.org/2000/svg">
  <sodipodi:namedview
     id="namedview7"
     pagecolor="#ffffff"
     bordercolor="#000000"
     borderopacity="0.25"
     inkscape:showpageshadow="2"
     inkscape:pageopacity="0.0"
     inkscape:pagecheckerboard="0"
     inkscape:deskcolor="#d1d1d1"
     inkscape:document-units="px"
     showgrid="true"
     inkscape:zoom="5.5731762"
     inkscape:cx="46.562318"
     inkscape:cy="55.354431"
     inkscape:window-width="1920"
     inkscape:window-height="1016"
     inkscape:window-x="0"
     inkscape:window-y="0"
     inkscape:window-maximized="1"
     inkscape:current-layer="layer1">
    <inkscape:grid
       type="xygrid"
       id="grid2865" />
  </sodipodi:namedview>
  <defs
     id="defs2">
    <inkscape:perspective
       sodipodi:type="inkscape:persp3d"
       inkscape:vp_x="0 : 50 : 1"
       inkscape:vp_y="0 : 1000 : 0"
       inkscape:vp_z="100 : 50 : 1"
       inkscape:persp3d-origin="50 : 33.333333 : 1"
       id="perspective5340" />
  </defs>
  <g
     inkscape:label="Layer 1"
     inkscape:groupmode="layer"
     id="layer1">
    <path
       style="fill:#ffffff;fill-opacity:1;stroke-width:10"
       id="path14682-2-2-7"
       sodipodi:type="arc"
       sodipodi:cx="44.242329"
       sodipodi:cy="38.432549"
       sodipodi:rx="10.931968"
       sodipodi:ry="10.931968"
       sodipodi:start="5.9800505"
       sodipodi:end="5.9796884"
       sodipodi:arc-type="slice"
       d="M 54.675858,35.169208 A 10.931968,10.931968 0 0 1 47.506614,48.865782 10.931968,10.931968 0 0 1 33.809391,41.697778 10.931968,10.931968 0 0 1 40.976155,27.999906 10.931968,10.931968 0 0 1 54.674675,35.16543 L 44.242329,38.432549 Z" />
    <path
       style="fill:#0000ff;fill-opacity:1;stroke-width:10"
       id="path14684-0-3-8"
       sodipodi:type="arc"
       sodipodi:cx="46.709152"
       sodipodi:cy="40.263664"
       sodipodi:rx="7.4334154"
       sodipodi:ry="7.4334154"
       sodipodi:start="5.9800505"
       sodipodi:end="5.9796884"
       sodipodi:arc-type="slice"
       d="m 53.803644,38.044689 a 7.4334154,7.4334154 0 0 1 -4.874874,9.313266 7.4334154,7.4334154 0 0 1 -9.313708,-4.874031 7.4334154,7.4334154 0 0 1 4.873188,-9.314149 7.4334154,7.4334154 0 0 1 9.31459,4.872345 l -7.093688,2.221544 z" />
    <path
       style="fill:#ffffff;fill-opacity:1;stroke-width:10"
       id="path14682-2-2-7-4"
       sodipodi:type="arc"
       sodipodi:cx="71.185005"
       sodipodi:cy="38.659645"
       sodipodi:rx="10.931968"
       sodipodi:ry="10.931968"
       sodipodi:start="5.9800505"
       sodipodi:end="5.9796884"
       sodipodi:arc-type="slice"
       d="M 81.618534,35.396305 A 10.931968,10.931968 0 0 1 74.44929,49.092879 10.931968,10.931968 0 0 1 60.752067,41.924874 10.931968,10.931968 0 0 1 67.918831,28.227003 10.931968,10.931968 0 0 1 81.617352,35.392527 l -10.432347,3.267118 z" />
    <path
       style="fill:#0000ff;fill-opacity:1;stroke-width:10"
       id="path14684-0-3-8-5"
       sodipodi:type="arc"
       sodipodi:cx="73.651825"
       sodipodi:cy="40.490761"
       sodipodi:rx="7.4334154"
       sodipodi:ry="7.4334154"
       sodipodi:start="5.9800505"
       sodipodi:end="5.9796884"
       sodipodi:arc-type="slice"
       d="m 80.746317,38.271786 a 7.4334154,7.4334154 0 0 1 -4.874875,9.313266 7.4334154,7.4334154 0 0 1 -9.313707,-4.874032 7.4334154,7.4334154 0 0 1 4.873188,-9.314148 7.4334154,7.4334154 0 0 1 9.31459,4.872345 l -7.093688,2.221544 z" />
  </g>
</svg>

<svg width="100" height="100" xmlns="http://www.w3.org/2000/svg"><path d="M54.676 35.17a10.932 10.932 0 0 1-7.17 13.696 10.932 10.932 0 0 1-13.697-7.168A10.932 10.932 0 0 1 40.976 28a10.932 10.932 0 0 1 13.699 7.165l-10.433 3.268z" fill="#fff"/><path d="M53.804 38.045a7.433 7.433 0 0 1-4.875 9.313 7.433 7.433 0 0 1-9.314-4.874 7.433 7.433 0 0 1 4.873-9.314 7.433 7.433 0 0 1 9.315 4.872l-7.094 2.222z" fill="#00f"/><path d="M81.619 35.396a10.932 10.932 0 0 1-7.17 13.697 10.932 10.932 0 0 1-13.697-7.168 10.932 10.932 0 0 1 7.167-13.698 10.932 10.932 0 0 1 13.698 7.166L71.185 38.66z" fill="#fff"/><path d="M80.746 38.272a7.433 7.433 0 0 1-4.875 9.313 7.433 7.433 0 0 1-9.313-4.874 7.433 7.433 0 0 1 4.873-9.314 7.433 7.433 0 0 1 9.315 4.872l-7.094 2.222z" fill="#00f"/></svg>
